X:1211
T:Jig away the Donkey
T:Fair Haired Lass, The
O:ireland
R:reel
H:Also in Ador, #669. See also #769
Z:id:hn-reel-558
M:C|
K:Amix
ea~a2 eg~g2|ea~a2 ABcd|ea~a2 efge|afge d2cd:|
|:eA~A2 efgf|eA~A2 BAGB|ABcd efge|afge d2cd:|
